X: 3272
T: Belfast, The
R: hornpipe
M: 4/4
K: Dmajor
a2g|faf dfd AdA FAF|D2F A2d f3 e2f|gbg ege cec A2F|G2A B2G E3 a2g|
faf dfd AdA FAF|D2F A2d f3 e2f|g2f e2d c2A B2c|d3 f3 d3:|

